icons/svg/logout.svg

﻿<?xml version="1.0" encoding="utf-8"?>
<!DOCTYPE svg PUBLIC "-//W3C//DTD SVG 1.1//EN" "http://www.w3.org/Graphics/SVG/1.1/DTD/svg11.dtd">
<svg xmlns="http://www.w3.org/2000/svg" xmlns:xlink="http://www.w3.org/1999/xlink" version="1.1" baseProfile="full" width="24" height="24" viewBox="0 0 24.00 24.00" enable-background="new 0 0 24.00 24.00" xml:space="preserve">
	<path fill="#000000" fill-opacity="1" stroke-width="0.2" stroke-linejoin="round" d="M 16.9999,17.25L 16.9999,14L 9.99998,14L 9.99998,10L 16.9999,10L 16.9999,6.75L 22.2499,12L 16.9999,17.25 Z M 13,2.00002C 14.1046,2.00002 15,2.89545 15,4.00002L 15,8L 13,8L 13,4.00002L 4,4.00004L 4,20L 13,20L 13,16L 15,16L 15,20C 15,21.1046 14.1046,22 13,22L 4,22C 2.89543,22 2,21.1046 2,20L 2,4.00004C 2,2.89547 2.89543,2.00006 4,2.00006L 13,2.00002 Z "/>
</svg>

<svg xmlns="http://www.w3.org/2000/svg" version="1.1" baseProfile="full" width="24" height="24" viewBox="0 0 24.00 24.00" xml:space="preserve"><path fill="#000" fill-opacity="1" stroke-width=".2" stroke-linejoin="round" d="M17 17.25V14h-7v-4h7V6.75L22.25 12 17 17.25zM13 2c1.105 0 2 .895 2 2v4h-2V4H4v16h9v-4h2v4c0 1.105-.895 2-2 2H4c-1.105 0-2-.895-2-2V4c0-1.105.895-2 2-2h9z"/></svg>
